src/main/resources/icons/AllIcons/welcome/fromVCSTab_dark.svg

<!-- Copyright 2000-2021 JetBrains s.r.o. Use of this source code is governed by the Apache 2.0 license that can be found in the LICENSE file. -->
<svg width="24" height="24" viewBox="0 0 24 24" fill="none" xmlns="http://www.w3.org/2000/svg">
<path d="M19.1253 2.8751C18.5417 2.29186 17.8334 2.00016 16.9999 2.00016C16.1669 2.00016 15.4585 2.2917 14.8751 2.8751C14.2919 3.45834 14.0003 4.16658 14.0003 5.0001C14.0003 5.54175 14.1354 6.04437 14.4062 6.50787C14.677 6.97142 15.0413 7.3335 15.4999 7.59379C15.4999 8.13544 15.4559 8.61217 15.3675 9.02357C15.2787 9.43496 15.133 9.79677 14.93 10.1095C14.7264 10.422 14.5159 10.6875 14.297 10.9063C14.078 11.1252 13.7708 11.3308 13.375 11.5236C12.9792 11.7163 12.6118 11.8775 12.2733 12.008C11.9349 12.1379 11.479 12.2916 10.9061 12.4687C9.86429 12.7918 9.06235 13.0884 8.4998 13.3594V5.59357C8.95815 5.33334 9.32275 4.97131 9.59355 4.50776C9.86429 4.04421 9.99969 3.54153 9.99969 2.99988C9.99969 2.16664 9.70815 1.45824 9.12474 0.874998C8.54156 0.291812 7.83332 0 6.99986 0C6.16634 0 5.4581 0.291593 4.8747 0.874998C4.29151 1.45824 3.99976 2.16664 3.99976 2.99988C3.99976 3.54153 4.13515 4.04421 4.4059 4.50776C4.67669 4.97131 5.04124 5.33334 5.49964 5.59357V18.4064C5.04124 18.6666 4.67669 19.029 4.4059 19.4923C4.13515 19.9561 3.99976 20.4587 3.99976 21.0002C3.99976 21.8335 4.29129 22.5418 4.8747 23.125C5.4581 23.7082 6.16651 24 6.99986 24C7.83315 24 8.54156 23.7082 9.12474 23.125C9.70798 22.5418 9.99969 21.8334 9.99969 21.0002C9.99969 20.4587 9.86429 19.9561 9.59355 19.4923C9.3227 19.029 8.95815 18.6666 8.4998 18.4064V18.0002C8.4998 17.2815 8.71592 16.7609 9.14817 16.438C9.58041 16.1147 10.4632 15.745 11.7968 15.3285C13.2032 14.8805 14.2607 14.4584 14.969 14.0624C17.3022 12.7398 18.4794 10.5834 18.5001 7.59373C18.9588 7.3335 19.3231 6.97136 19.5939 6.50781C19.8645 6.04426 20.0001 5.54169 20.0001 5.00004C20.0003 4.16675 19.7085 3.45851 19.1253 2.8751Z" fill="#CCE2FF"/>
</svg>

<svg width="24" height="24" viewBox="0 0 24 24" fill="none" xmlns="http://www.w3.org/2000/svg"><rect id="frame" width="24" height="24" fill="none"/><path d="M19.125 2.875A2.894 2.894 0 0 0 17 2c-.833 0-1.541.292-2.125.875A2.893 2.893 0 0 0 14 5c0 .542.135 1.044.406 1.508.271.463.635.825 1.094 1.086 0 .541-.044 1.018-.133 1.43a3.223 3.223 0 0 1-.437 1.086 4.915 4.915 0 0 1-.633.796c-.219.22-.526.425-.922.618-.396.192-.763.354-1.102.484-.338.13-.794.284-1.367.46-1.042.324-1.844.62-2.406.891V5.594c.458-.26.823-.623 1.094-1.086C9.864 4.044 10 3.542 10 3c0-.833-.292-1.542-.875-2.125A2.893 2.893 0 0 0 7 0c-.834 0-1.542.292-2.125.875A2.893 2.893 0 0 0 4 3c0 .542.135 1.044.406 1.508.27.463.635.825 1.094 1.086v12.812c-.459.26-.823.623-1.094 1.086A2.94 2.94 0 0 0 4 21c0 .834.291 1.542.875 2.125A2.894 2.894 0 0 0 7 24c.833 0 1.542-.292 2.125-.875A2.893 2.893 0 0 0 10 21a2.94 2.94 0 0 0-.406-1.508A2.918 2.918 0 0 0 8.5 18.406V18c0-.718.216-1.24.648-1.562.432-.323 1.315-.693 2.649-1.11 1.406-.447 2.464-.87 3.172-1.266 2.333-1.322 3.51-3.479 3.531-6.468.459-.26.823-.623 1.094-1.086A2.94 2.94 0 0 0 20 5c0-.833-.291-1.541-.875-2.125z" fill="#CCE2FF"/></svg>
